src/images/Link/Pattern.svg

<svg fill="none" height="913" viewBox="0 0 1004 913" width="1004" xmlns="http://www.w3.org/2000/svg"><g stroke-miterlimit="10" stroke-width="10"><path d="m601.667 103.286c0-67.4015-67.397-67.4015-67.397 0v67.401c-.001 67.402 67.397 67.402 67.397 0v-33.7" stroke="#0a95c8"/><path d="m950.715 343.248c0-37.42 37.418-37.42 37.418 0v37.42c0 37.42-37.418 37.42-37.418 0v-18.71" stroke="#ed1c4e"/><path d="m144.423 512.991c0-37.42 37.418-37.42 37.418 0v37.42c0 37.42-37.418 37.42-37.418 0v-18.71" stroke="#10a79b"/><path d="m623.758 411.776c0 28.516-28.514 28.516-28.514 0v-28.516c0-28.516 28.514-28.516 28.514 0v14.202" stroke="#ed1c4e"/><path d="m841.729 480.531-110.113 197.809c-20.174 36.18-6.988 82.505 29.191 102.68 28.965 16.118 80.133 11.159 102.674-29.192 20.174-36.18 6.988-82.505-29.191-102.68" stroke="#fff"/><path d="m912.507 377.625v121.503c0 22.204 18.259 40.464 40.461 40.464 17.808 0 40.461-15.78 40.461-40.464 0-22.204-18.258-40.463-40.461-40.463" stroke="#e18c42"/><path d="m895.827 337.05c-1.352-23.332-21.413-41.14-43.842-39.9-21.414 1.24-38.883 19.274-38.996 41.14-.112 21.866 17.357 40.463 39.447 41.59h44.744" stroke="#fff"/><path d="m719.331 175.984c29.416 1.691 51.957 27.051 50.379 55.454-1.465 27.051-24.457 49.142-52.069 49.255-27.726.113-51.169-21.866-52.634-49.818v-56.582" stroke="#e18c42"/><path d="m658.922 50.8742c2.028-23.2186 22.766-40.3507 45.194-38.3219 21.302 1.9161 38.207 20.6262 37.531 42.4922-.676 21.8661-18.709 39.7872-40.799 40.238-14.877-.4508-29.754-1.0144-44.744-1.4652" stroke="#10a79b"/><path d="m149.156 786.543c-2.028-23.219-22.766-40.351-45.194-38.322-21.3017 1.916-38.2075 20.626-37.5313 42.492.6763 21.866 18.7091 39.787 40.7993 40.238 14.877-.451 29.754-1.014 44.744-1.465" stroke="#fff"/><g stroke="#eabb65"><path d="m80.4061 122.897c-41.2501-.563-74.83616 32.574-75.39969 71.798-.56354 41.365 35.95289 73.149 75.39969 73.262 39.5599.113 73.5959-31.672 76.1889-72.473v-190.483"/><path d="m969.424 273.48h-108.986c-27.725.112-52.971 14.201-64.805 36.969-15.553 29.981-5.635 70.445 25.809 93.1"/><path d="m659.935 143.861h108.986c27.725-.113 52.971-14.202 64.805-36.97 15.554-29.981 5.635-70.4444-25.809-93.0995"/></g><path d="m797.436 887.306h108.985c27.726-.112 52.972-14.201 64.806-36.969 15.553-29.981 5.635-70.445-25.81-93.1" stroke="#0a95c8"/><path d="m288.009 893.055h108.986c27.725-.112 52.971-14.201 64.805-36.969 15.553-29.981 5.635-70.445-25.809-93.1" stroke="#eabb65"/><path d="m792.702 238.313 160.267.001" stroke="#fff"/><path d="m835.53 584.112h160.379" stroke="#fff"/><path d="m175.417 5 337.889.00006" stroke="#10a79b"/><path d="m119.064 893.055h158.576" stroke="#10a79b"/><path d="m981.821 97.1987v160.3883" stroke="#0a95c8"/><path d="m350.899 101.707v160.389" stroke="#e18c42"/><path d="m836.545 616.235c53.196 19.95 80.584 79.913 61.086 132.887-19.724 53.651-80.359 80.589-133.218 61.203-53.535-19.612-81.824-80.364-61.875-134.578" stroke="#eabb65"/><path d="m243.49 581.295 3.043-87.351c.564-16.005 14.201-28.629 30.093-28.065 12.735.45 28.739 12.285 28.063 30.094-.563 16.005-14.201 28.628-30.092 28.065" stroke="#0a95c8"/><path d="m266.595 549.172c30.431 5.636 60.072-14.539 65.933-44.746 5.86-30.545-14.765-60.188-44.857-66.049-30.543-5.974-60.748 14.427-66.721 45.31" stroke="#ed1c4e"/><path d="m108.47 893.055c-56.8031-.338-103.35029-47-103.46298-103.469-.1127-57.145 47.33618-103.469 103.68898-103.695 57.028-.225 104.59 46.889 104.703 104.71" stroke="#e18c42"/><path d="m417.62 109.822c18.032-1.578 31.332-17.5831 29.754-35.0534-1.465-16.5686-16.004-29.6432-32.91-29.1923-17.019.4508-30.881 14.5397-31.219 31.6719.338 11.6093.789 23.1058 1.127 34.7148" stroke="#fff"/><path d="m61.8096 387.093c-25.2459-2.254-43.8423-24.683-41.7009-49.029 2.0287-23.219 22.4284-41.478 46.2091-40.802 23.7808.677 43.2792 20.288 43.7292 44.296-.563 16.23-1.127 32.348-1.578 48.579" stroke="#fff"/><path d="m203.932 91.5633c1.916 55.2287 75.625 52.6367 73.709-2.5923-1.916-55.2287 71.793-57.821 73.709-2.5924" stroke="#0a95c8"/><path d="m248.901 702.234v160.276" stroke="#ed1c4e"/><path d="m112.415 410.762c1.916 55.228 75.625 52.636 73.709-2.593-1.916-55.228 71.793-57.821 73.709-2.592" stroke="#eabb65"/><path d="m531.452 844.025c-25.246-2.254-43.843-24.684-41.701-49.029 2.029-23.219 22.428-41.478 46.209-40.802s43.279 20.288 43.729 44.296c-.563 16.23-1.127 32.348-1.577 48.578" stroke="#e18c42"/><path d="m582.057 867.582c1.916 55.229 75.625 52.636 73.709-2.592-1.916-55.229 71.793-57.822 73.709-2.593" stroke="#ed1c4e"/><path d="m946.545 176.435c.789-55.342-72.92-56.356-73.709-1.015-.789 55.342-74.498 54.327-73.709-1.014" stroke="#10a79b"/><path d="m915.663 107.456c20.354 0 36.855-16.5018 36.855-36.8571 0-20.3554-16.501-36.8567-36.855-36.8567s-36.854 16.5013-36.854 36.8567c0 20.3553 16.5 36.8571 36.854 36.8571z" stroke="#ed1c4e"/><path d="m398.235 863.637c20.354 0 36.854-16.501 36.854-36.857 0-20.355-16.5-36.856-36.854-36.856s-36.855 16.501-36.855 36.856c0 20.356 16.501 36.857 36.855 36.857z" stroke="#0a95c8"/><path d="m82.8858 230.875c20.3542 0 36.8542-16.502 36.8542-36.857 0-20.356-16.5-36.857-36.8542-36.857s-36.8546 16.501-36.8546 36.857c0 20.355 16.5004 36.857 36.8546 36.857z" stroke="#ed1c4e"/><path d="m908 5s73.709.00001 73.709 73.7134" stroke="#fff"/><path d="m203.819 648.921h-160.3795" stroke="#fff"/><path d="m14.6992 507.919v160.276" stroke="#eabb65"/><path d="m49.8632 587.155c-.7889-55.341 72.9198-56.355 73.7088-1.014s74.498 54.327 73.709-1.014" stroke="#ed1c4e"/><path d="m433.286 674.733h81.824" stroke="#fff"/><path d="m308.521 636.071c-37.418-.563-38.094 49.368-.676 49.931 37.418.564 36.742 50.382-.676 49.932" stroke="#e18c42"/><path d="m298.828 285.652c-37.418-.563-38.094 49.368-.676 49.931 37.418.564 36.742 50.382-.676 49.932" stroke="#fff"/><path d="m80.7447 518.065c20.3543 0 36.8543-16.501 36.8543-36.857 0-20.355-16.5-36.856-36.8543-36.856-20.3542 0-36.8546 16.501-36.8546 36.856 0 20.356 16.5004 36.857 36.8546 36.857z" stroke="#e18c42"/><path d="m88.4083 415.722s-73.7091 0-73.7091 73.713" stroke="#10a79b"/><path d="m634.577 99.3403s0-93.32515-93.32-93.32516" stroke="#ed1c4e"/><path d="m545.652 616.686c0-67.402 67.398-67.402 67.398 0v67.401c0 67.402-67.398 67.402-67.398 0v-33.7" stroke="#ed1c4e"/><path d="m488.398 564.275c-2.028-23.218-22.766-40.351-45.194-38.322-21.302 1.916-38.207 20.626-37.531 42.492s18.709 39.788 40.799 40.238c14.877-.45 29.754-1.014 44.744-1.465" stroke="#10a79b"/><path d="m512.743 612.74s0-93.325 93.32-93.325" stroke="#0a95c8"/><path d="m829.106 408.733s43.166 27.389 18.033 64.584" stroke="#ed1c4e"/><path d="m428.214 754.983s-43.166-27.389-18.033-64.584" stroke="#ed1c4e"/><path d="m685.294 484.25-269.703-1.015c-25.584 0-48.914 13.3-59.846 34.265-14.427 27.614-5.185 65.034 23.78 86.111" stroke="#eabb65"/><path d="m715.612 483.235c49.252 0 49.252-49.254 0-49.254s-49.252-49.255 0-49.255 49.252-49.255 0-49.255h-98.392" stroke="#fff"/><path d="m222.978 335.921c-49.252 0-49.252-49.255 0-49.255s49.252-49.255 0-49.255-49.252-49.255 0-49.255h98.392" stroke="#10a79b"/><path d="m61.8098 87.0552c-27.0492 0-27.0492-27.0508 0-27.0508 27.0493 0 27.0493-27.0508 0-27.0508-27.0492 0-27.0492-27.05077.0001-27.05076l54.0981.00001" stroke="#0a95c8"/><path d="m376.821 355.195c-11.383.113-20.512 9.243-20.625 20.627 0 12.623 11.496 20.626 20.625 20.626 11.383 0 20.513-9.243 20.625-20.626v-61.766" stroke="#10a79b"/><path d="m436.104 222.984c20.963.226 38.094-16.568 38.32-36.405.225-20.965-18.258-37.195-38.32-37.195-20.061 0-37.418 16.118-38.658 36.856v96.82" stroke="#ed1c4e"/><path d="m636.38 741.796c-11.383 0-20.512 9.242-20.625 20.626 0 12.624 11.496 20.626 20.625 20.626 11.383 0 20.512-9.242 20.625-20.626v-61.766" stroke="#e18c42"/><path d="m298.152 814.382c-11.383.113-20.512 9.242-20.625 20.626 0 12.624 11.496 20.626 20.625 20.626 11.384 0 20.513-9.242 20.625-20.626v-61.766" stroke="#fff"/><path d="m695.663 609.584c20.963.225 38.095-16.569 38.32-36.406.338-20.964-18.258-37.195-38.32-37.195-20.061 0-37.418 16.118-38.658 36.857v96.819" stroke="#0a95c8"/><path d="m969.536 679.918c15.666.225 28.515-12.399 28.627-27.277.226-15.666-13.637-27.839-28.627-27.839-14.989 0-27.95 12.06-28.965 27.614v72.474" stroke="#ed1c4e"/><path d="m473.184 356.66c-25.697-19.837-30.543-57.144-10.933-82.73 19.836-25.924 57.367-30.432 82.951-10.933 25.922 19.725 31.107 57.596 11.045 83.745" stroke="#e18c42"/><path d="m548.696 354.068-53.986 43.507c-9.918 8.003-11.383 22.542-3.494 32.461 6.424 7.89 21.527 12.398 32.459 3.494 9.918-8.002 11.384-22.542 3.494-32.461" stroke="#fff"/></g></svg>

<svg width="1004" height="913" viewBox="0 0 1004 913" fill="none" xmlns="http://www.w3.org/2000/svg">
<path d="M601.667 103.286C601.667 35.8845 534.27 35.8845 534.27 103.286L534.27 170.687C534.269 238.089 601.667 238.089 601.667 170.687L601.667 136.987" stroke="#0A95C8" stroke-width="10" stroke-miterlimit="10"/>
<path d="M950.715 343.248C950.715 305.828 988.133 305.828 988.133 343.248L988.133 380.668C988.133 418.088 950.715 418.088 950.715 380.668L950.715 361.958" stroke="#ED1C4E" stroke-width="10" stroke-miterlimit="10"/>
<path d="M144.423 512.991C144.423 475.571 181.841 475.571 181.841 512.991L181.841 550.411C181.841 587.831 144.423 587.831 144.423 550.411L144.423 531.701" stroke="#10A79B" stroke-width="10" stroke-miterlimit="10"/>
<path d="M623.758 411.776C623.758 440.292 595.244 440.292 595.244 411.776L595.244 383.26C595.244 354.744 623.758 354.744 623.758 383.26L623.758 397.462" stroke="#ED1C4E" stroke-width="10" stroke-miterlimit="10"/>
<path d="M841.729 480.531L731.616 678.34C711.442 714.52 724.628 760.845 760.807 781.02C789.772 797.138 840.94 792.179 863.481 751.828C883.655 715.648 870.469 669.323 834.29 649.148" stroke="white" stroke-width="10" stroke-miterlimit="10"/>
<path d="M912.507 377.625L912.507 499.128C912.507 521.332 930.766 539.592 952.968 539.592C970.776 539.592 993.429 523.812 993.429 499.128C993.429 476.924 975.171 458.665 952.968 458.665" stroke="#E18C42" stroke-width="10" stroke-miterlimit="10"/>
<path d="M895.827 337.05C894.475 313.718 874.414 295.91 851.985 297.15C830.571 298.39 813.102 316.424 812.989 338.29C812.877 360.156 830.346 378.753 852.436 379.88L897.18 379.88" stroke="white" stroke-width="10" stroke-miterlimit="10"/>
<path d="M719.331 175.984C748.747 177.675 771.288 203.035 769.71 231.438C768.245 258.489 745.253 280.58 717.641 280.693C689.915 280.806 666.472 258.827 665.007 230.875L665.007 174.293" stroke="#E18C42" stroke-width="10" stroke-miterlimit="10"/>
<path d="M658.922 50.8742C660.95 27.6556 681.688 10.5235 704.116 12.5523C725.418 14.4684 742.323 33.1785 741.647 55.0445C740.971 76.9106 722.938 94.8317 700.848 95.2825C685.971 94.8317 671.094 94.2681 656.104 93.8173" stroke="#10A79B" stroke-width="10" stroke-miterlimit="10"/>
<path d="M149.156 786.543C147.128 763.324 126.39 746.192 103.962 748.221C82.6603 750.137 65.7545 768.847 66.4307 790.713C67.107 812.579 85.1398 830.5 107.23 830.951C122.107 830.5 136.984 829.937 151.974 829.486" stroke="white" stroke-width="10" stroke-miterlimit="10"/>
<path d="M80.4061 122.897C39.156 122.334 5.56994 155.471 5.00641 194.695C4.44287 236.06 40.9593 267.844 80.4061 267.957C119.966 268.07 154.002 236.285 156.595 195.484L156.595 5.001" stroke="#EABB65" stroke-width="10" stroke-miterlimit="10"/>
<path d="M969.424 273.48L860.438 273.48C832.713 273.592 807.467 287.681 795.633 310.449C780.08 340.43 789.998 380.894 821.442 403.549" stroke="#EABB65" stroke-width="10" stroke-miterlimit="10"/>
<path d="M659.935 143.861L768.921 143.861C796.646 143.748 821.892 129.659 833.726 106.891C849.28 76.91 839.361 36.4466 807.917 13.7915" stroke="#EABB65" stroke-width="10" stroke-miterlimit="10"/>
<path d="M797.436 887.306L906.421 887.306C934.147 887.194 959.393 873.105 971.227 850.337C986.78 820.356 976.862 779.892 945.417 757.237" stroke="#0A95C8" stroke-width="10" stroke-miterlimit="10"/>
<path d="M288.009 893.055L396.995 893.055C424.72 892.943 449.966 878.854 461.8 856.086C477.353 826.105 467.435 785.641 435.991 762.986" stroke="#EABB65" stroke-width="10" stroke-miterlimit="10"/>
<path d="M792.702 238.313L952.969 238.314" stroke="white" stroke-width="10" stroke-miterlimit="10"/>
<path d="M835.53 584.112L995.909 584.112" stroke="white" stroke-width="10" stroke-miterlimit="10"/>
<path d="M175.417 5L513.306 5.00006" stroke="#10A79B" stroke-width="10" stroke-miterlimit="10"/>
<path d="M119.064 893.055L277.64 893.055" stroke="#10A79B" stroke-width="10" stroke-miterlimit="10"/>
<path d="M981.821 97.1987L981.821 257.587" stroke="#0A95C8" stroke-width="10" stroke-miterlimit="10"/>
<path d="M350.899 101.707L350.899 262.096" stroke="#E18C42" stroke-width="10" stroke-miterlimit="10"/>
<path d="M836.545 616.235C889.741 636.185 917.129 696.148 897.631 749.122C877.907 802.773 817.272 829.711 764.413 810.325C710.878 790.713 682.589 729.961 702.538 675.747" stroke="#EABB65" stroke-width="10" stroke-miterlimit="10"/>
<path d="M243.49 581.295L246.533 493.944C247.097 477.939 260.734 465.315 276.626 465.879C289.361 466.329 305.365 478.164 304.689 495.973C304.126 511.978 290.488 524.601 274.597 524.038" stroke="#0A95C8" stroke-width="10" stroke-miterlimit="10"/>
<path d="M266.595 549.172C297.026 554.808 326.667 534.633 332.528 504.426C338.388 473.881 317.763 444.238 287.671 438.377C257.128 432.403 226.923 452.804 220.95 483.687" stroke="#ED1C4E" stroke-width="10" stroke-miterlimit="10"/>
<path d="M108.47 893.055C51.6669 892.717 5.11971 846.055 5.00702 789.586C4.89432 732.441 52.3432 686.117 108.696 685.891C165.724 685.666 213.286 732.78 213.399 790.601" stroke="#E18C42" stroke-width="10" stroke-miterlimit="10"/>
<path d="M417.62 109.822C435.652 108.244 448.952 92.2389 447.374 74.7686C445.909 58.2 431.37 45.1254 414.464 45.5763C397.445 46.0271 383.583 60.116 383.245 77.2482C383.583 88.8575 384.034 100.354 384.372 111.963" stroke="white" stroke-width="10" stroke-miterlimit="10"/>
<path d="M61.8096 387.093C36.5637 384.839 17.9673 362.41 20.1087 338.064C22.1374 314.845 42.5371 296.586 66.3178 297.262C90.0986 297.939 109.597 317.55 110.047 341.558C109.484 357.788 108.92 373.906 108.469 390.137" stroke="white" stroke-width="10" stroke-miterlimit="10"/>
<path d="M203.932 91.5633C205.848 146.792 279.557 144.2 277.641 88.971C275.725 33.7423 349.434 31.15 351.35 86.3786" stroke="#0A95C8" stroke-width="10" stroke-miterlimit="10"/>
<path d="M248.901 702.234L248.901 862.51" stroke="#ED1C4E" stroke-width="10" stroke-miterlimit="10"/>
<path d="M112.415 410.762C114.331 465.99 188.04 463.398 186.124 408.169C184.208 352.941 257.917 350.348 259.833 405.577" stroke="#EABB65" stroke-width="10" stroke-miterlimit="10"/>
<path d="M531.452 844.025C506.206 841.771 487.609 819.341 489.751 794.996C491.78 771.777 512.179 753.518 535.96 754.194C559.741 754.87 579.239 774.482 579.689 798.49C579.126 814.72 578.562 830.838 578.112 847.068" stroke="#E18C42" stroke-width="10" stroke-miterlimit="10"/>
<path d="M582.057 867.582C583.973 922.811 657.682 920.218 655.766 864.99C653.85 809.761 727.559 807.168 729.475 862.397" stroke="#ED1C4E" stroke-width="10" stroke-miterlimit="10"/>
<path d="M946.545 176.435C947.334 121.093 873.625 120.079 872.836 175.42C872.047 230.762 798.338 229.747 799.127 174.406" stroke="#10A79B" stroke-width="10" stroke-miterlimit="10"/>
<path d="M915.663 107.456C936.017 107.456 952.518 90.9542 952.518 70.5989C952.518 50.2435 936.017 33.7422 915.663 33.7422C895.309 33.7422 878.809 50.2435 878.809 70.5989C878.809 90.9542 895.309 107.456 915.663 107.456Z" stroke="#ED1C4E" stroke-width="10" stroke-miterlimit="10"/>
<path d="M398.235 863.637C418.589 863.637 435.089 847.136 435.089 826.78C435.089 806.425 418.589 789.924 398.235 789.924C377.881 789.924 361.38 806.425 361.38 826.78C361.38 847.136 377.881 863.637 398.235 863.637Z" stroke="#0A95C8" stroke-width="10" stroke-miterlimit="10"/>
<path d="M82.8858 230.875C103.24 230.875 119.74 214.373 119.74 194.018C119.74 173.662 103.24 157.161 82.8858 157.161C62.5316 157.161 46.0312 173.662 46.0312 194.018C46.0312 214.373 62.5316 230.875 82.8858 230.875Z" stroke="#ED1C4E" stroke-width="10" stroke-miterlimit="10"/>
<path d="M908 5C908 5 981.709 5.00001 981.709 78.7134" stroke="white" stroke-width="10" stroke-miterlimit="10"/>
<path d="M203.819 648.921L43.4395 648.921" stroke="white" stroke-width="10" stroke-miterlimit="10"/>
<path d="M14.6992 507.919L14.6992 668.195" stroke="#EABB65" stroke-width="10" stroke-miterlimit="10"/>
<path d="M49.8632 587.155C49.0743 531.814 122.783 530.8 123.572 586.141C124.361 641.482 198.07 640.468 197.281 585.127" stroke="#ED1C4E" stroke-width="10" stroke-miterlimit="10"/>
<path d="M433.286 674.733L515.11 674.733" stroke="white" stroke-width="10" stroke-miterlimit="10"/>
<path d="M308.521 636.071C271.103 635.508 270.427 685.439 307.845 686.002C345.263 686.566 344.587 736.384 307.169 735.934" stroke="#E18C42" stroke-width="10" stroke-miterlimit="10"/>
<path d="M298.828 285.652C261.41 285.089 260.734 335.02 298.152 335.583C335.57 336.147 334.894 385.965 297.476 385.515" stroke="white" stroke-width="10" stroke-miterlimit="10"/>
<path d="M80.7447 518.065C101.099 518.065 117.599 501.564 117.599 481.208C117.599 460.853 101.099 444.352 80.7447 444.352C60.3905 444.352 43.8901 460.853 43.8901 481.208C43.8901 501.564 60.3905 518.065 80.7447 518.065Z" stroke="#E18C42" stroke-width="10" stroke-miterlimit="10"/>
<path d="M88.4083 415.722C88.4083 415.722 14.6992 415.722 14.6992 489.435" stroke="#10A79B" stroke-width="10" stroke-miterlimit="10"/>
<path d="M634.577 99.3403C634.577 99.3403 634.577 6.01515 541.257 6.01514" stroke="#ED1C4E" stroke-width="10" stroke-miterlimit="10"/>
<path d="M545.652 616.686C545.652 549.284 613.05 549.284 613.05 616.686L613.05 684.087C613.05 751.489 545.652 751.489 545.652 684.087L545.652 650.387" stroke="#ED1C4E" stroke-width="10" stroke-miterlimit="10"/>
<path d="M488.398 564.275C486.37 541.057 465.632 523.924 443.204 525.953C421.902 527.869 404.997 546.579 405.673 568.445C406.349 590.311 424.382 608.233 446.472 608.683C461.349 608.233 476.226 607.669 491.216 607.218" stroke="#10A79B" stroke-width="10" stroke-miterlimit="10"/>
<path d="M512.743 612.74C512.743 612.74 512.743 519.415 606.063 519.415" stroke="#0A95C8" stroke-width="10" stroke-miterlimit="10"/>
<path d="M829.106 408.733C829.106 408.733 872.272 436.122 847.139 473.317" stroke="#ED1C4E" stroke-width="10" stroke-miterlimit="10"/>
<path d="M428.214 754.983C428.214 754.983 385.048 727.594 410.181 690.399" stroke="#ED1C4E" stroke-width="10" stroke-miterlimit="10"/>
<path d="M685.294 484.25L415.591 483.235C390.007 483.235 366.677 496.535 355.745 517.5C341.318 545.114 350.56 582.534 379.525 603.611" stroke="#EABB65" stroke-width="10" stroke-miterlimit="10"/>
<path d="M715.612 483.235C764.864 483.235 764.864 433.981 715.612 433.981C666.36 433.981 666.36 384.726 715.612 384.726C764.864 384.726 764.864 335.471 715.612 335.471L617.22 335.471" stroke="white" stroke-width="10" stroke-miterlimit="10"/>
<path d="M222.978 335.921C173.726 335.921 173.726 286.666 222.978 286.666C272.23 286.666 272.23 237.411 222.978 237.411C173.726 237.411 173.726 188.156 222.978 188.156L321.37 188.156" stroke="#10A79B" stroke-width="10" stroke-miterlimit="10"/>
<path d="M61.8098 87.0552C34.7606 87.0552 34.7606 60.0044 61.8098 60.0044C88.8591 60.0044 88.8591 32.9536 61.8098 32.9536C34.7606 32.9536 34.7606 5.90283 61.8099 5.90284L115.908 5.90285" stroke="#0A95C8" stroke-width="10" stroke-miterlimit="10"/>
<path d="M376.821 355.195C365.438 355.308 356.309 364.438 356.196 375.822C356.196 388.445 367.692 396.448 376.821 396.448C388.204 396.448 397.334 387.205 397.446 375.822L397.446 314.056" stroke="#10A79B" stroke-width="10" stroke-miterlimit="10"/>
<path d="M436.104 222.984C457.067 223.21 474.198 206.416 474.424 186.579C474.649 165.614 456.166 149.384 436.104 149.384C416.043 149.384 398.686 165.502 397.446 186.24L397.446 283.06" stroke="#ED1C4E" stroke-width="10" stroke-miterlimit="10"/>
<path d="M636.38 741.796C624.997 741.796 615.868 751.038 615.755 762.422C615.755 775.046 627.251 783.048 636.38 783.048C647.763 783.048 656.892 773.806 657.005 762.422L657.005 700.656" stroke="#E18C42" stroke-width="10" stroke-miterlimit="10"/>
<path d="M298.152 814.382C286.769 814.495 277.64 823.624 277.527 835.008C277.527 847.632 289.023 855.634 298.152 855.634C309.536 855.634 318.665 846.392 318.777 835.008L318.777 773.242" stroke="white" stroke-width="10" stroke-miterlimit="10"/>
<path d="M695.663 609.584C716.626 609.809 733.758 593.015 733.983 573.178C734.321 552.214 715.725 535.983 695.663 535.983C675.602 535.983 658.245 552.101 657.005 572.84L657.005 669.659" stroke="#0A95C8" stroke-width="10" stroke-miterlimit="10"/>
<path d="M969.536 679.918C985.202 680.143 998.051 667.519 998.163 652.641C998.389 636.975 984.526 624.802 969.536 624.802C954.547 624.802 941.586 636.862 940.571 652.416L940.571 724.89" stroke="#ED1C4E" stroke-width="10" stroke-miterlimit="10"/>
<path d="M473.184 356.66C447.487 336.823 442.641 299.516 462.251 273.93C482.087 248.006 519.618 243.498 545.202 262.997C571.124 282.722 576.309 320.593 556.247 346.742" stroke="#E18C42" stroke-width="10" stroke-miterlimit="10"/>
<path d="M548.696 354.068L494.71 397.575C484.792 405.578 483.327 420.117 491.216 430.036C497.64 437.926 512.743 442.434 523.675 433.53C533.593 425.528 535.059 410.988 527.169 401.069" stroke="white" stroke-width="10" stroke-miterlimit="10"/>
</svg>
